!!!id: 18xx:703
!!!COM: Bułakowski, Stefan
!!!OTL: Msza As – Dona nobis
!!!PDT:
!!!SMS-siglum: PL-CZ
!!!SMS-shelfmark: III-47
!!!NIFC-rismID: 300000053
!!!URL-scan: http://repozytorium.nifc.pl/skany/pl-cz-nut--iii-47
!!!ONB-nifc: UWAGA: części Mszy: Kyrie, Gloria, Justus ut palma, Credo, Et incarnatus, Et resurrexit, Veritas mea, Sanctus, Pleni, Benedictus, Agnus Dei, Dona nobis
!!!SMS-variant:
!!!SMS-altvar:
**kern	**text	**dynam	**kern	**text	**dynam	**kern	**text	**dynam	**kern	**dynam	**kern	**dynam	**kern	**dynam	**kern	**dynam	**kern	**dynam	**kern	**dynam	**kern	**dynam
*part10	*part10	*part10	*part9	*part9	*part9	*part8	*part8	*part8	*part7	*part7	*part6	*part6	*part5	*part5	*part4	*part4	*part3	*part3	*part2	*part2	*part1	*part1
*staff10	*staff10	*	*staff9	*staff9	*	*staff8	*staff8	*	*staff7	*	*staff6	*	*staff5	*	*staff4	*	*staff3	*	*staff2	*	*staff1	*
*I"Baſso	*	*	*I"Tenore 2do	*	*	*I"Tenore Imo	*	*	*I"Trombone	*	*I"Corno 2do in Es	*	*I"Corno 1mo in Es	*	*I"Fagotto 2do	*	*I"Fagotto 1mo	*	*I"Clarinetto 2do in B.	*	*I"Clarinetto 1mo in B.	*
*I'B	*	*	*I'T 2	*	*	*I'T 1	*	*	*I'Trb	*	*I'cor 2	*	*I'cor 1	*	*I'fag 2	*	*I'fag 1	*	*I'Cl 2	*	*I'Cl 1	*
*group3	*	*	*group3	*	*	*group3	*	*	*group2	*	*group2	*	*group2	*	*group1	*	*group1	*	*group1	*	*group1	*
*clefF4	*	*	*clefC4	*	*	*clefC4	*	*	*clefF4	*	*clefG2	*	*clefG2	*	*clefF4	*	*clefF4	*	*clefG2	*	*clefG2	*
*	*	*	*	*	*	*	*	*	*	*	*ITrd5c9	*	*ITrd5c9	*	*	*	*	*	*ITrd1c2	*	*ITrd1c2	*
*k[b-e-a-]	*	*	*k[b-e-a-]	*	*	*k[b-e-a-]	*	*	*k[b-e-a-]	*	*k[b-e-a-]	*	*k[b-e-a-]	*	*k[b-e-a-]	*	*k[b-e-a-]	*	*k[b-e-a-]	*	*k[b-e-a-]	*
*M3/8	*	*	*M3/8	*	*	*M3/8	*	*	*M3/8	*	*M3/8	*	*M3/8	*	*M3/8	*	*M3/8	*	*M3/8	*	*M3/8	*
=1	=1	=1	=1	=1	=1	=1	=1	=1	=1	=1	=1	=1	=1	=1	=1	=1	=1	=1	=1	=1	=1	=1
*2\right	*	*	*2\right	*	*	*2\right	*	*	*2\right	*	*2\right	*	*2\right	*	*2\right	*	*2\right	*	*2\right	*	*2\right	*
!LO:TX:a:t=Donanobis	!	!	!LO:TX:a:t=Donanobis	!	!	!LO:TX:a:t=Donanobis	!	!	!LO:TX:a:t=Donanobis	!	!LO:TX:a:t=Donanobis	!	!LO:TX:a:t=Donanobis	!	!LO:TX:a:t=Donanobis	!	!LO:TX:a:t=Donanobis	!	!LO:TX:a:t=Donanobis	!LO:DY:b	!	!LO:TX:a:t=Donanobis
!LO:TX:a:t=Moderato	!	!	!LO:TX:a:t=Mod&colon;	!	!	!LO:TX:a:t=Moderato.	!	!	!LO:TX:a:t=Moderato.	!	!LO:TX:a:t=Moderato.	!LO:DY:b	!LO:TX:a:t=Moderato.	!LO:DY:b	!LO:TX:a:t=Moderato.	!	!LO:TX:a:t=Moderato.	!	!LO:TX:a:t=Moderato	!	!LO:TX:a:t=Moderato	!
4e-\	Do-	.	4e-\	Do-	.	4e-\	Do-	.	4E-\	.	4G/	p	4e-\	p	4E-\	.	4B-\	.	4b-\	p	4ee-\	.
8e-\	-na	.	8e-\	-na	.	8e-\	-na	.	8E-\	.	8G/	.	8e-\	.	8E-\	.	8B-\	.	8b-\	.	8ee-\	.
=2	=2	=2	=2	=2	=2	=2	=2	=2	=2	=2	=2	=2	=2	=2	=2	=2	=2	=2	=2	=2	=2	=2
(8d\L	no-	.	(8d\L	no-	.	(8d\L	no-	.	4.GG^>/	.	4.G^>/	.	4.g^\	.	4.G^<\	.	4.Bn^<\	.	4.d^>/	.	8dd\L	.
8c\J)	.	.	8c\J)	.	.	8c\J)	.	.	.	.	.	.	.	.	.	.	.	.	.	.	8cc\	.
8Bn\	-bis	.	8Bn\	-bis	.	8Bn\	-bis.	.	.	.	.	.	.	.	.	.	.	.	.	.	8bX\J	.
=3	=3	=3	=3	=3	=3	=3	=3	=3	=3	=3	=3	=3	=3	=3	=3	=3	=3	=3	=3	=3	=3	=3
4c\	Do-	.	4c\	Do-	.	4c\	Do-	.	4C/	.	4G/	.	4g\	.	4C/	.	4c\	.	4e-/	.	4cc\	.
8c\	-na	.	8c\	-na	.	8c\	-na	.	8C/	.	8G/	.	8g\	.	8C/	.	8c\	.	8e-/	.	8cc\	.
=4	=4	=4	=4	=4	=4	=4	=4	=4	=4	=4	=4	=4	=4	=4	=4	=4	=4	=4	=4	=4	=4	=4
(8B-X\L	no-	.	(8B-X\L	no-	.	(8B-X\L	no-	.	4.E-\	.	4.B-^>/	.	4.e-^\	.	4.E-^<\	.	4.d-X^<\	.	4.d-X^>/	.	8b-\L	.
8A-\J)	.	.	8A-\J)	.	.	8A-\J)	.	.	.	.	.	.	.	.	.	.	.	.	.	.	8a-\	.
8G\	-bis	.	8G\	-bis	.	8G\	-bis	.	.	.	.	.	.	.	.	.	.	.	.	.	8g\J	.
!LO:LB:g=original	!	!	!	!	!	!LO:LB:g=original	!	!	!	!	!	!	!	!	!	!	!	!	!	!	!	!
=5	=5	=5	=5	=5	=5	=5	=5	=5	=5	=5	=5	=5	=5	=5	=5	=5	=5	=5	=5	=5	=5	=5
(8A-\L	no-	.	8A-\L	pa-	.	(8A-\L	no-	.	4AA-/	.	4c/	.	4e-\	.	4A-\	.	4c\	.	4c/	.	8a-\L	.
8F\J)	.	.	8F\J	.	.	8F\J)	.	.	.	.	.	.	.	.	.	.	.	.	.	.	8f\	.
8B-\	-bis	.	8B-\	-cem	.	8B-\	-bis	.	8BB-/	.	8B-/	.	8f\	.	8B-\	.	8B-\	.	8d/	.	8b-\J	.
!	!	!	!LO:LB:g=original	!	!	!	!	!	!	!	!	!	!	!	!	!	!	!	!	!	!	!
=6	=6	=6	=6	=6	=6	=6	=6	=6	=6	=6	=6	=6	=6	=6	=6	=6	=6	=6	=6	=6	=6	=6
8G\	pa-	.	8G/	pa-	.	8G/	pa-	.	4E-\	.	4e-\	.	4g\	.	4E-\	.	4B-\	.	4e-/	.	8g\L	.
8E-\	-cem	.	8E-/	-cem	.	8E-/	-cem	.	.	.	.	.	.	.	.	.	.	.	.	.	16e-\L	.
.	.	.	.	.	.	.	.	.	.	.	.	.	.	.	.	.	.	.	.	.	16b-\	.
8r	.	.	8r	.	.	8r	.	.	8r	.	8r	.	8r	.	8r	.	8r	.	8r	.	16cc\	.
.	.	.	.	.	.	.	.	.	.	.	.	.	.	.	.	.	.	.	.	.	16dd\JJ	.
!	!	!	!	!	!	!	!	!	!LO:LB:g=original	!	!LO:LB:g=original	!	!	!	!LO:LB:g=original	!	!LO:LB:g=original	!	!LO:LB:g=original	!	!LO:LB:g=original	!
=7	=7	=7	=7	=7	=7	=7	=7	=7	=7	=7	=7	=7	=7	=7	=7	=7	=7	=7	=7	=7	=7	=7
4e-\	Do-	.	4e-\	Do-	.	4e-\	Do-	.	4E-\	.	4G/	.	4e-\	.	4E-\	.	4B-\	.	4b-\	.	4ee-\	.
8e-\	-na	.	8e-\	-na	.	8e-\	-na	.	8E-\	.	8G/	.	8e-\	.	8E-\	.	8B-\	.	8b-\	.	8ee-\	.
!	!	!	!	!	!	!	!	!	!	!	!	!	!LO:LB:g=original	!	!	!	!	!	!	!	!	!
=8	=8	=8	=8	=8	=8	=8	=8	=8	=8	=8	=8	=8	=8	=8	=8	=8	=8	=8	=8	=8	=8	=8
(8d\L	no-	.	(8d\L	no-	.	(8d\L	no-	.	4.GG^>/	.	4.G^>/	.	4.g^\	.	4.G^<\	.	4.Bn^<\	.	4.d^>/	.	8dd\L	.
8c\J)	.	.	8c\J)	.	.	8c\J)	.	.	.	.	.	.	.	.	.	.	.	.	.	.	8cc\	.
8Bn\	-bis	.	8Bn\	-bis	.	8Bn\	-bis.	.	.	.	.	.	.	.	.	.	.	.	.	.	8bX\J	.
=9	=9	=9	=9	=9	=9	=9	=9	=9	=9	=9	=9	=9	=9	=9	=9	=9	=9	=9	=9	=9	=9	=9
4c\	Do-	.	4c\	Do-	.	4c\	Do-	.	4C/	.	4G/	.	4g\	.	4C/	.	4c\	.	4e-/	.	4cc\	.
8c\	-na	.	8c\	-na	.	8c\	-na	.	8C/	.	8G/	.	8g\	.	8C/	.	8c\	.	8e-/	.	8cc\	.
=10	=10	=10	=10	=10	=10	=10	=10	=10	=10	=10	=10	=10	=10	=10	=10	=10	=10	=10	=10	=10	=10	=10
(8B-X\L	no-	.	(8B-X\L	no-	.	(8B-X\L	no-	.	4.E-\	.	4.B-^>/	.	4.e-^\	.	4.E-^<\	.	4.d-X^<\	.	4.d-X^>/	.	8b-nX\L	.
8A-\J)	.	.	8A-\J)	.	.	8A-\J)	.	.	.	.	.	.	.	.	.	.	.	.	.	.	8a-\	.
8G\	-bis	.	8G\	-bis	.	8G\	-bis	.	.	.	.	.	.	.	.	.	.	.	.	.	8g\J	.
!LO:LB:g=original	!	!	!	!	!	!LO:LB:g=original	!	!	!	!	!	!	!	!	!	!	!	!	!	!	!	!
=11	=11	=11	=11	=11	=11	=11	=11	=11	=11	=11	=11	=11	=11	=11	=11	=11	=11	=11	=11	=11	=11	=11
8A-\	no-	.	8A-\	no-	.	8A-\	no-	.	4AA-/	.	4c/	.	4e-\	.	4A-\	.	4c\	.	4c/	.	8a-\L	.
8F\	-bis	.	8F\	-bis	.	8F/	-bis	.	.	.	.	.	.	.	.	.	.	.	.	.	8f\	.
8B-\	pa-	.	8B-\	pa-	.	8B-\	pa-	.	8BB-/	.	8B-/	.	8f\	.	8B-\	.	8B-\	.	8dn/	.	8b-\J	.
=12	=12	=12	=12	=12	=12	=12	=12	=12	=12	=12	=12	=12	=12	=12	=12	=12	=12	=12	=12	=12	=12	=12
8E-\	-cem	.	4E-/	-cem	.	4E-/	-cem	.	4E-\	.	4G/	.	4e-\	.	4E-\	.	4B-\	.	8.e-/L	.	8.e-\L	.
8r	.	.	.	.	.	.	.	.	.	.	.	.	.	.	.	.	.	.	.	.	.	.
.	.	.	.	.	.	.	.	.	.	.	.	.	.	.	.	.	.	.	16B-/L	.	16b-\L	.
8r	.	.	8r	.	.	8r	.	.	8r	.	8r	.	8r	.	8r	.	8r	.	16d/	.	16dd\	.
.	.	.	.	.	.	.	.	.	.	.	.	.	.	.	.	.	.	.	16f/JJ	.	16ff\JJ	.
!	!	!	!LO:LB:g=original	!	!	!	!	!	!	!	!	!	!	!	!	!	!	!	!	!	!	!
=13	=13	=13	=13	=13	=13	=13	=13	=13	=13	=13	=13	=13	=13	=13	=13	=13	=13	=13	=13	=13	=13	=13
8r	.	.	8r	.	.	8r	.	.	4BB-/	.	8r	.	8r	.	4BB-/	.	8r	.	16D/LL	.	8aa-\L	.
.	.	.	.	.	.	.	.	.	.	.	.	.	.	.	.	.	.	.	16B-/	.	.	.
8BB-/	Do-	.	8A-\	Do-	.	8d\	Do-	.	.	.	8B-/L	.	8f\L	.	.	.	8d\L	.	16F/	.	8dd\	.
.	.	.	.	.	.	.	.	.	.	.	.	.	.	.	.	.	.	.	16B-/	.	.	.
8BB-/	-na	.	8A-\	-na	.	8d\	-na	.	8r	.	8B-/J	.	8f\J	.	8r	.	8d\J	.	16F/	.	8dd\J	.
.	.	.	.	.	.	.	.	.	.	.	.	.	.	.	.	.	.	.	16B-/JJ	.	.	.
=14	=14	=14	=14	=14	=14	=14	=14	=14	=14	=14	=14	=14	=14	=14	=14	=14	=14	=14	=14	=14	=14	=14
8E-\	no-	.	8G/	no-	.	8e-\	no-	.	4E-\	.	8r	.	8r	.	4E-\	.	8r	.	16E-/LL	.	8ee-\L	.
.	.	.	.	.	.	.	.	.	.	.	.	.	.	.	.	.	.	.	16B-/	.	.	.
8E-\	-bis	.	8G/	-bis	.	8e-\	-bis	.	.	.	8e-\L	.	8g\L	.	.	.	8B-\L	.	16G/	.	16ee-\L	.
.	.	.	.	.	.	.	.	.	.	.	.	.	.	.	.	.	.	.	16B-/	.	16b-\	.
8r	.	.	8r	.	.	8r	.	.	8r	.	8e-\J	.	8g\J	.	8r	.	8B-\J	.	16G/	.	16dd\	.
.	.	.	.	.	.	.	.	.	.	.	.	.	.	.	.	.	.	.	16B-/JJ	.	16ff\JJ	.
!	!	!	!	!	!	!	!	!	!	!	!	!	!	!	!	!	!	!	!LO:LB:g=original	!	!LO:LB:g=original	!
=15	=15	=15	=15	=15	=15	=15	=15	=15	=15	=15	=15	=15	=15	=15	=15	=15	=15	=15	=15	=15	=15	=15
8r	.	.	8r	.	.	8r	.	.	4BB-/	.	8r	.	8r	.	4BB-/	.	8r	.	16D/LL	.	8aa-\L	.
.	.	.	.	.	.	.	.	.	.	.	.	.	.	.	.	.	.	.	16B-/	.	.	.
8BB-/	Do-	.	8A-\	Do-	.	8d\	Do-	.	.	.	8B-/L	.	8f\L	.	.	.	8d\L	.	16F/	.	8dd\	.
.	.	.	.	.	.	.	.	.	.	.	.	.	.	.	.	.	.	.	16B-/	.	.	.
8BB-/	-na	.	8A-\	-na	.	8d\	-na	.	8r	.	8B-/J	.	8f\J	.	8r	.	8d\J	.	16F/	.	8dd\J	.
.	.	.	.	.	.	.	.	.	.	.	.	.	.	.	.	.	.	.	16B-/JJ	.	.	.
!	!	!	!	!	!	!	!	!	!	!	!LO:LB:g=original	!	!	!	!	!	!	!	!	!	!	!
=16	=16	=16	=16	=16	=16	=16	=16	=16	=16	=16	=16	=16	=16	=16	=16	=16	=16	=16	=16	=16	=16	=16
8E-\	no-	.	8G/	no-	.	8e-\	no-	.	4E-\	.	4e-\	.	4g\	.	4E-\	.	4B-\	.	16E-/LL	.	8ee-\L	.
.	.	.	.	.	.	.	.	.	.	.	.	.	.	.	.	.	.	.	16B-/	.	.	.
8E-\	-bis	.	8G/	-bis	.	8e-\	-bis	.	.	.	.	.	.	.	.	.	.	.	16G/	.	16ee-\L	.
.	.	.	.	.	.	.	.	.	.	.	.	.	.	.	.	.	.	.	16B-/	.	16b-\	.
8r	.	.	8r	.	.	8r	.	.	8r	.	8r	.	8r	.	8r	.	8r	.	16c/	.	16cc\	.
.	.	.	.	.	.	.	.	.	.	.	.	.	.	.	.	.	.	.	16d/JJ	.	16dd\JJ	.
!LO:LB:g=original	!	!	!	!	!	!LO:LB:g=original	!	!	!LO:LB:g=original	!	!	!	!	!	!LO:LB:g=original	!	!LO:LB:g=original	!	!	!	!	!
=17	=17	=17	=17	=17	=17	=17	=17	=17	=17	=17	=17	=17	=17	=17	=17	=17	=17	=17	=17	=17	=17	=17
4E-\	Da	.	(16e-\LL	Do-	.	(16e-\LL	Do-	.	4E-\	.	4.e-\	.	4.e-^\	.	16E-\LL	.	16e-\LL	.	16e-/LL	.	16ee-\LL	.
.	.	.	16f\JJ)	.	.	16f\JJ)	.	.	.	.	.	.	.	.	16F\	.	16f\	.	16f/	.	16ff\	.
.	.	.	(16g\LL	-na	.	(16g\LL	-na	.	.	.	.	.	.	.	16G\	.	16g\	.	16g/	.	16gg\	.
.	.	.	16f\JJ)	.	.	16f\JJ)	.	.	.	.	.	.	.	.	16F\	.	16f\	.	16f/	.	16ff\	.
16E-\	no-	.	16e-'\	no-	.	16e-\	no-	.	8r	.	.	.	.	.	16E-\	.	16e-\	.	16e-/	.	16ee-\	.
16E-\	-bis	.	16d'\	-bis	.	16d\	-bis	.	.	.	.	.	.	.	16D\JJ	.	16d\JJ	.	16d/JJ	.	16dd\JJ	.
!	!	!	!LO:LB:g=original	!	!	!	!	!	!	!	!	!	!LO:LB:g=original	!	!	!	!	!	!	!	!	!
=18	=18	=18	=18	=18	=18	=18	=18	=18	=18	=18	=18	=18	=18	=18	=18	=18	=18	=18	=18	=18	=18	=18
4c\	Da	.	(16c\LL	Do-	.	(16c\LL	Do-	.	4C/	.	4.c/	.	4.c^>/	.	16C\LL	.	16c\LL	.	16c/LL	.	16cc\LL	.
.	.	.	16d\JJ)	.	.	16d\JJ)	.	.	.	.	.	.	.	.	16D\	.	16d\	.	16d/	.	16dd\	.
.	.	.	(16e-\LL	-na	.	(16e-\LL	-na	.	.	.	.	.	.	.	16E-\	.	16e-\	.	16e-/	.	16ee-\	.
.	.	.	16d\JJ)	.	.	16d\JJ)	.	.	.	.	.	.	.	.	16D\	.	16d\	.	16d/	.	16dd\	.
16c\	no-	.	16c\	no-	.	16c\	no-	.	8r	.	.	.	.	.	16C\	.	16c\	.	16c/	.	16cc\	.
16c\	-bis	.	16B-\	-bis	.	16B-\	-bis	.	.	.	.	.	.	.	16BB-\JJ	.	16B-\JJ	.	16B-/JJ	.	16b-\JJ	.
=19	=19	=19	=19	=19	=19	=19	=19	=19	=19	=19	=19	=19	=19	=19	=19	=19	=19	=19	=19	=19	=19	=19
(16A-\LL	Do-	.	(16A-\LL	Do-	.	(16A-\LL	Do-	.	4AA-/	.	4.A-/	.	4.A-^>/	.	16AA-/LL	.	16A-\LL	.	16A-/LL	.	16a-\LL	.
16B-\JJ)	.	.	16B-\JJ)	.	.	16B-\JJ)	.	.	.	.	.	.	.	.	16BB-/	.	16B-\	.	16B-/	.	16b-\	.
(16c\LL	-na	.	(16c\LL	-na	.	(16c\LL	-na	.	.	.	.	.	.	.	16C/	.	16c\	.	16c/	.	16cc\	.
16B-\JJ)	.	.	16B-\JJ)	.	.	16B-\JJ)	.	.	.	.	.	.	.	.	16BB-/	.	16B-\	.	16B-/	.	16b-\	.
16A-\	no-	.	16A-\	no-	.	16A-\	no-	.	8r	.	.	.	.	.	16AA-/	.	16A-\	.	16A-/	.	16a-\	.
16G\	-bis	.	16G\	-bis	.	16G\	-bis	.	.	.	.	.	.	.	16GG/JJ	.	16G\JJ	.	16G/JJ	.	16g\JJ	.
!	!	!	!	!	!	!LO:LB:g=original	!	!	!	!	!	!	!	!	!	!	!	!	!	!	!	!
=20	=20	=20	=20	=20	=20	=20	=20	=20	=20	=20	=20	=20	=20	=20	=20	=20	=20	=20	=20	=20	=20	=20
(8A-\L	pa-	.	(8A-\L	pa-	.	(8A-\L	pa-	.	4AA-/	.	4r	.	4r	.	4AA-/	.	8A-\L	.	8A-/L	.	8a-\L	.
8F\	.	.	8F\	.	.	8F\	.	.	.	.	.	.	.	.	.	.	8F\	.	8F/	.	8f\	.
8B-\J)	.	.	8B-\J)	.	.	8B-\J)	.	.	8BB-/	.	8B-/	.	8f\	.	8BB-/	.	8d\J	.	8B-/J	.	8b-\J	.
!	!	!	!	!	!	!	!	!	!	!	!	!	!	!	!	!	!	!	!LO:LB:g=original	!	!	!
=21	=21	=21	=21	=21	=21	=21	=21	=21	=21	=21	=21	=21	=21	=21	=21	=21	=21	=21	=21	=21	=21	=21
8E-\	-cem	.	8E-/	-cem	.	8E-/	-cem	.	4E-\	.	4G/	.	4e-\	.	4E-\	.	8.e-\L	.	8G/	.	8e-/	.
8r	.	.	8r	.	.	8r	.	.	.	.	.	.	.	.	.	.	.	.	16r	.	16r	.
.	.	.	.	.	.	.	.	.	.	.	.	.	.	.	.	.	16B-\L	.	16B-/LL	.	16b-\LL	.
8r	.	.	8r	.	.	8r	.	.	8r	.	8r	.	8r	.	8r	.	16c\	.	16c/	.	16cc\	.
.	.	.	.	.	.	.	.	.	.	.	.	.	.	.	.	.	16d\JJ	.	16d/JJ	.	16dd\JJ	.
!LO:LB:g=original	!	!	!	!	!	!	!	!	!	!	!	!	!	!	!	!	!	!	!	!	!LO:LB:g=original	!
=22	=22	=22	=22	=22	=22	=22	=22	=22	=22	=22	=22	=22	=22	=22	=22	=22	=22	=22	=22	=22	=22	=22
4E-\	Da	.	(16e-\LL	Do-	.	(16e-\LL	Do-	.	4E-\	.	4.e-^>\	.	4.e-^\	.	16E-\LL	.	16e-\LL	.	16e-/LL	.	16ee-\LL	.
.	.	.	16f\JJ)	.	.	16f\JJ)	.	.	.	.	.	.	.	.	16F\	.	16f\	.	16f/	.	16ff\	.
.	.	.	(16g\LL	-na	.	(16g\LL	-na	.	.	.	.	.	.	.	16G\	.	16g\	.	16g/	.	16gg\	.
.	.	.	16f\JJ)	.	.	16f\JJ)	.	.	.	.	.	.	.	.	16F\	.	16f\	.	16f/	.	16ff\	.
16E-\	no-	.	16e-'\	no-	.	16e-\	no-	.	8r	.	.	.	.	.	16E-\	.	16e-\	.	16e-/	.	16ee-\	.
16E-\	-bis	.	16d'\	-bis	.	16d\	-bis	.	.	.	.	.	.	.	16D\JJ	.	16d\JJ	.	16d/JJ	.	16dd\JJ	.
!	!	!	!LO:LB:g=original	!	!	!	!	!	!	!	!	!	!	!	!LO:LB:g=original	!	!LO:LB:g=original	!	!	!	!	!
=23	=23	=23	=23	=23	=23	=23	=23	=23	=23	=23	=23	=23	=23	=23	=23	=23	=23	=23	=23	=23	=23	=23
4c\	Da	.	(16c\LL	Do-	.	(16c\LL	Do-	.	4C/	.	4.c^>/	.	4.c^\	.	16C\LL	.	16c\LL	.	16c/LL	.	16cc\LL	.
.	.	.	16d\JJ)	.	.	16d\JJ)	.	.	.	.	.	.	.	.	16D\	.	16d\	.	16d/	.	16dd\	.
.	.	.	(16e-\LL	-na	.	(16e-\LL	-na	.	.	.	.	.	.	.	16E-\	.	16e-\	.	16e-/	.	16ee-\	.
.	.	.	16d\JJ)	.	.	16d\JJ)	.	.	.	.	.	.	.	.	16D\	.	16d\	.	16d/	.	16dd\	.
16c\	no-	.	16c'\	no-	.	16c\	no-	.	8r	.	.	.	.	.	16C\	.	16c\	.	16c/	.	16cc\	.
16c\	-bis	.	16B-'\	-bis	.	16B-\	-bis	.	.	.	.	.	.	.	16BB-\JJ	.	16B-\JJ	.	16B-/JJ	.	16b-\JJ	.
!	!	!	!	!	!	!LO:LB:g=original	!	!	!	!	!	!	!	!	!	!	!	!	!	!	!	!
=24	=24	=24	=24	=24	=24	=24	=24	=24	=24	=24	=24	=24	=24	=24	=24	=24	=24	=24	=24	=24	=24	=24
(16A-\LL	Do-	.	(16A-\LL	Do-	.	(16A-\LL	Do-	.	4AA-/	.	4.A-^>/	.	4.A-^>/	.	16AA-/LL	.	16A-\LL	.	16A-/LL	.	16a-\LL	.
16B-\JJ)	.	.	16B-\JJ)	.	.	16B-\JJ)	.	.	.	.	.	.	.	.	16BB-/	.	16B-\	.	16B-/	.	16b-\	.
(16c\LL	-na	.	(16c\LL	-na	.	(16c\LL	-na	.	.	.	.	.	.	.	16C/	.	16c\	.	16c/	.	16cc\	.
16B-\JJ)	.	.	16B-\JJ)	.	.	16B-\JJ)	.	.	.	.	.	.	.	.	16BB-/	.	16B-\	.	16B-/	.	16b-\	.
16A-\	no-	.	16A-\	no-	.	16A-\	no-	.	8r	.	.	.	.	.	16AA-/	.	16A-\	.	16A-/	.	16a-\	.
16G\	-bis	.	16c\	-bis	.	16c\	-bis	.	.	.	.	.	.	.	16C/JJ	.	16c\JJ	.	16c/JJ	.	16cc\JJ	.
=25	=25	=25	=25	=25	=25	=25	=25	=25	=25	=25	=25	=25	=25	=25	=25	=25	=25	=25	=25	=25	=25	=25
4.A-\	pa-	.	8B-\L	pa-	.	(8B-\L	pa-	.	4BB-/	.	4r	.	4r	.	4BB-/	.	8B-\L	.	4d/	.	8b-\L	.
.	.	.	8c\	.	.	8c\	.	.	.	.	.	.	.	.	.	.	8c\	.	.	.	8cc\	.
.	.	.	8d\J	.	.	8d\J)	.	.	8BB-/	.	8B-/	.	8f\	.	8BB-/	.	8d\J	.	8a-\	.	8dd\J	.
=26	=26	=26	=26	=26	=26	=26	=26	=26	=26	=26	=26	=26	=26	=26	=26	=26	=26	=26	=26	=26	=26	=26
8G\	-cem	.	8e-\	-cem	.	8e-\	-cem	.	4E-\	.	4G/	.	4e-\	.	4E-\	.	4e-\	.	(8.g\L	.	8.ee-\L	.
8r	.	.	8r	.	.	8r	.	.	.	.	.	.	.	.	.	.	.	.	.	.	.	.
!	!	!	!	!	!	!	!	!	!	!	!	!	!	!	!	!	!	!	!	!LO:DY:b:t=p.	!	!
.	.	.	.	.	.	.	.	.	.	.	.	.	.	.	.	.	.	.	8.b-\J)	p	16bb-\L	.
8r	.	.	8r	.	.	8r	.	.	8r	.	8r	.	8r	.	8r	.	8r	.	.	.	16gg\	.
.	.	.	.	.	.	.	.	.	.	.	.	.	.	.	.	.	.	.	.	.	16ee-\JJ	.
!LO:LB:g=original	!	!	!	!	!	!	!	!	!LO:LB:g=original	!	!LO:LB:g=original	!	!	!	!	!	!	!	!LO:LB:g=original	!	!	!
=27	=27	=27	=27	=27	=27	=27	=27	=27	=27	=27	=27	=27	=27	=27	=27	=27	=27	=27	=27	=27	=27	=27
!	!	!LO:DY:b	!	!	!LO:DY:b	!	!	!LO:DY:b:t=p.	!	!LO:DY:b	!	!LO:DY:b:t=p.	!	!LO:DY:b:t=p.	!	!LO:DY:b:t=p.	!	!LO:DY:b	!	!LO:DY:b	!	!LO:DY:b
8BB-/	Da	p	8A-\	Da	p	8d\	Da	p	8BB-/	p	8B-/L	p	8f\L	p	8BB-/L	p	8F\L	p	(8.a-\L	p	8dd\L	p
8BB-/	no-	.	8A-\	no-	.	8d\	no-	.	8r	.	8B-/	.	8f\	.	8BB-/	.	8F\	.	.	.	8dd\	.
.	.	.	.	.	.	.	.	.	.	.	.	.	.	.	.	.	.	.	8.b-\J)	.	.	.
8BB-/	-bis	.	8A-\	-bis	.	8d\	-bis	.	8BB-/	.	8B-/J	.	8f\J	.	8BB-/J	.	8F\J	.	.	.	8dd\J	.
!	!	!	!LO:LB:g=original	!	!	!	!	!	!	!	!	!	!LO:LB:g=original	!	!	!	!	!	!	!	!	!
=28	=28	=28	=28	=28	=28	=28	=28	=28	=28	=28	=28	=28	=28	=28	=28	=28	=28	=28	=28	=28	=28	=28
8E-\	pa-	.	8G/	pa-	.	8e-\	pa-	.	4E-\	.	4e-\	.	4g\	.	4E-\	.	4G\	.	(8.g\L	.	8.ee-\L	.
8E-\	-cem	.	8G/	-cem	.	8e-\	-cem	.	.	.	.	.	.	.	.	.	.	.	.	.	.	.
.	.	.	.	.	.	.	.	.	.	.	.	.	.	.	.	.	.	.	8.b-\J)	.	16bb-\L	.
8r	.	.	8r	.	.	8r	.	.	8r	.	8r	.	8r	.	8r	.	8r	.	.	.	16gg\	.
.	.	.	.	.	.	.	.	.	.	.	.	.	.	.	.	.	.	.	.	.	16ee-\JJ	.
!	!	!	!	!	!	!LO:LB:g=original	!	!	!	!	!	!	!	!	!	!	!	!	!	!	!LO:LB:g=original	!
=29	=29	=29	=29	=29	=29	=29	=29	=29	=29	=29	=29	=29	=29	=29	=29	=29	=29	=29	=29	=29	=29	=29
8BB-/	Da	.	8A-\	Da	.	8d\	Da	.	8BB-/	.	8B-/L	.	8f\L	.	8BB-/L	.	8F\L	.	(8.a-\L	.	8dd\L	.
8BB-/	no-	.	8A-\	no-	.	8d\	no-	.	8r	.	8B-/	.	8f\	.	8BB-/	.	8F\	.	.	.	8dd\	.
.	.	.	.	.	.	.	.	.	.	.	.	.	.	.	.	.	.	.	8.b-\J)	.	.	.
8BB-/	-bis	.	8A-\	-bis	.	8d\	-bis	.	8BB-/	.	8B-/J	.	8f\J	.	8BB-/J	.	8F\J	.	.	.	8dd\J	.
!	!	!	!	!	!	!	!	!	!	!	!	!	!	!	!LO:LB:g=original	!	!	!	!	!	!	!
=30	=30	=30	=30	=30	=30	=30	=30	=30	=30	=30	=30	=30	=30	=30	=30	=30	=30	=30	=30	=30	=30	=30
8E-\	pa-	.	8G/	pa-	.	8e-\	pa-	.	4E-\	.	4e-\	.	4g\	.	4E-\	.	4G\	.	8g\L	.	8ee-\L	.
8E-\	-cem	.	8G/	-cem	.	8e-\	-cem	.	.	.	.	.	.	.	.	.	.	.	8g\J	.	8ee-\J	.
8r	.	.	8r	.	.	8r	.	.	8r	.	8r	.	8r	.	8r	.	8r	.	8r	.	8r	.
!	!	!	!	!	!	!	!	!	!	!	!	!	!	!	!	!	!LO:LB:g=original	!	!	!	!	!
=31	=31	=31	=31	=31	=31	=31	=31	=31	=31	=31	=31	=31	=31	=31	=31	=31	=31	=31	=31	=31	=31	=31
!	!	!LO:DY:b	!	!	!LO:DY:b	!	!	!LO:DY:b	!	!LO:DY:b	!	!LO:DY:b	!	!LO:DY:b	!	!LO:DY:b	!	!LO:DY:b	!	!LO:DY:b	!	!LO:DY:b
4.BB-\ 4.A-	pa-	ff	4.d\	pa-	ff	4.f\	pa-	ff	4.BB-/	ff	4.B-/	ff	4.f\	ff	4.BB-/	ff	4.A-\	ff	4.dd\	ff	4.ff\	ff
=32	=32	=32	=32	=32	=32	=32	=32	=32	=32	=32	=32	=32	=32	=32	=32	=32	=32	=32	=32	=32	=32	=32
8E-\	-cem	.	8e-\	-cem	.	8g\	-cem	.	8E-\	.	8e-\	.	8g\	.	8E-\	.	8G\	.	8ee-\	.	8gg\	.
4r	.	.	4r	.	.	8r	.	.	4r	.	8r	.	8r	.	8r	.	8r	.	8r	.	8r	.
.	.	.	.	.	.	8r	.	.	.	.	8r	.	8r	.	8r	.	8r	.	8r	.	8r	.
=33	=33	=33	=33	=33	=33	=33	=33	=33	=33	=33	=33	=33	=33	=33	=33	=33	=33	=33	=33	=33	=33	=33
!	!	!	!	!	!	!	!	!	!LO:TX:a:t=2	!	!	!LO:DY:b	!	!LO:DY:b:t=pp.	!	!LO:DY:b:t=pp.	!	!LO:DY:b:t=pp.	!	!LO:DY:b:t=pp.	!	!LO:DY:b
!	!	!LO:DY:b	!	!	!LO:DY:b	!	!	!LO:DY:b	!LO:N:vis=0	!	!	!	!	!	!	!	!	!	!	!	!	!
4.BB-/	pa-	pp	4.A-\	pa-	pp	4.d\	pa-	pp	2.r	.	4.B-/	pp	4.f\	pp	4.BB-/	pp	4.F\	pp	4.a-\	pp	4.dd\	pp
=34	=34	=34	=34	=34	=34	=34	=34	=34	=34	=34	=34	=34	=34	=34	=34	=34	=34	=34	=34	=34	=34	=34
8E-\	-cem	.	8G\	-cem	.	8e-\	-cem	.	.	.	8G/	.	8e-\	.	8E-\	.	8E-\	.	8g/	.	8ee-\	.
4r	.	.	4r	.	.	8r	.	.	.	.	8r	.	8r	.	8r	.	8r	.	8r	.	8r	.
.	.	.	.	.	.	8r	.	.	.	.	8r	.	8r	.	8r	.	8r	.	8r	.	8r	.
!	!	!	!	!	!	!	!	!	!	!	!LO:LB:g=original	!	!	!	!	!	!	!	!LO:LB:g=original	!	!	!
=35	=35	=35	=35	=35	=35	=35	=35	=35	=35	=35	=35	=35	=35	=35	=35	=35	=35	=35	=35	=35	=35	=35
!LO:TX:a:t=2	!	!	!LO:TX:a:t=2	!	!	!LO:TX:a:t=2.	!	!	!	!LO:DY:b	!	!LO:DY:b	!	!LO:DY:b	!	!LO:DY:b	!	!LO:DY:b	!	!LO:DY:b	!	!LO:DY:b
!LO:N:vis=0	!	!	!LO:N:vis=0	!	!	!LO:N:vis=0	!	!	!	!	!	!	!	!	!	!	!	!	!	!	!	!
2.r;	.	.	2.r;	.	.	2.r;	.	.	8E-\L	ff	8G/L	ff	8e-\L	ff	8E-/L	ff	8e-\L	ff	8g/L	ff	8ee-\L	ff
.	.	.	.	.	.	.	.	.	8BB-\	.	8G/	.	8e-\	.	8BB-/	.	8B-\	.	8g/	.	8ee-\	.
.	.	.	.	.	.	.	.	.	8GG\J	.	8G/J	.	8e-\J	.	8GG/J	.	8G\J	.	8g/J	.	8ee-\J	.
=36	=36	=36	=36	=36	=36	=36	=36	=36	=36	=36	=36	=36	=36	=36	=36	=36	=36	=36	=36	=36	=36	=36
!	!	!	!	!	!	!	!	!	!	!	!LO:TX:b:i:t=Finis	!	!LO:TX:b:i:t=Finis	!	!LO:TX:b:i:t=Finis	!	!LO:TX:b:i:t=Finis	!	!LO:TX:b:i:t=Finis	!	!LO:TX:b:i:t=Finis	!
.	.	.	.	.	.	.	.	.	4.EE-;/	.	4.G;/	.	4.e-;\	.	4.EE-;/	.	4.E-;\	.	4.g;/	.	4.ee-;\	.
==;;	==	==	==;;	==	==	==;;	==	==	==;;	==	==;;	==	==;;	==	==;;	==	==;;	==	==;;	==	==;;	==
*-	*-	*-	*-	*-	*-	*-	*-	*-	*-	*-	*-	*-	*-	*-	*-	*-	*-	*-	*-	*-	*-	*-
!!!system-decoration: [(g1)][(g2)][(g3)]
!!!RDF**kern: >= above
!!!RDF**kern: <= below
!!!ENC:Anastazja Marusiak
!!!END:2020-07-02
!!!ENC:Anna Matuszewska
!!!END:2020-12-31
